icon-themes/sifr_svg/cmd/lc_arrowshapes.circular-arrow.svg

<svg viewBox="0 0 24 24" xmlns="http://www.w3.org/2000/svg"><g fill="#555753"><path d="m10 4a10 9 0 0 0 -10 9v2h6v-2a4 3 0 0 1 4-3 4 3 0 0 1 4 3v2h-4v1.777344l5.875 5.222656h2.25l5.875-5.222656v-1.777344h-4v-2a10 9 0 0 0 -10-9zm0 2a8 7 0 0 1 8 7v4h2.138672l-3.138672 3-3.138672-3h2.138672v-4a6 5 0 0 0 -6-5 6 5 0 0 0 -6 5h-2a8 7 0 0 1 8-7z"/><path d="m10 6c4.418278 0 8 3.1340068 8 7v4h2.138672l-3.138672 3-3.138672-3h2.138672v-4c0-2.761424-2.686292-5-6-5-3.3137085 0-6 2.238576-6 5h-2c0-3.8659932 3.581722-7 8-7z" opacity=".35"/></g></svg>

<svg viewBox="0 0 24 24" xmlns="http://www.w3.org/2000/svg">
  <path
     style="fill:#555753"
     d="M 10 4 A 10 9 0 0 0 0 13 L 0 15 L 6 15 L 6 13 A 4 3 0 0 1 10 10 A 4 3 0 0 1 14 13 L 14 15 L 10 15 L 10 16.777344 L 15.875 22 L 18.125 22 L 24 16.777344 L 24 15 L 20 15 L 20 13 A 10 9 0 0 0 10 4 z M 10 6 A 8 7 0 0 1 18 13 L 18 17 L 20.138672 17 L 17 20 L 13.861328 17 L 16 17 L 16 13 A 6 5 0 0 0 10 8 A 6 5 0 0 0 4 13 L 2 13 A 8 7 0 0 1 10 6 z "
     />
  <path
     style="fill:#555753;opacity:0.35"
     d="m 10,6 c 4.418278,0 8,3.1340068 8,7 v 4 h 2.138672 L 17,20 13.861328,17 H 16 V 13 C 16,10.238576 13.313708,8 10,8 6.6862915,8 4,10.238576 4,13 H 2 C 2,9.1340068 5.581722,6 10,6 Z"
     />
</svg>
